!!!COM: Scarlatti, Domenico
!!!CDT: 1685-1757
!!!OTL: Sonata in D major, L.306, K.345
!!!SCT: K. 345
!!!SCT: L. 306
!!!OMD: Allegro ([half]=116)
**kern	**kern	**dynam
*staff2	*staff1	*staff1/2
*Icemba	*Icemba	*
*I"L.306 (K.345)	*I"L.306 (K.345)	*
*>[A,A1,A,A2,B,B]	*>[A,A1,A,A2,B,B]	*>[A,A1,A,A2,B,B]
*>norep[A,A2,B]	*>norep[A,A2,B]	*>norep[A,A2,B]
*>A	*>A	*>A
*clefF4	*clefG2	*
*k[f#c#]	*k[f#c#]	*
*D:	*D:	*
*met(c|)	*met(c|)	*
*M4/4	*M4/4	*
*MM232	*MM232	*
=1-	=1-	=1-
1r	(2dd	f
.	2a	.
=2	=2	=2
1r	4dd)	.
.	(8ff#L	.
.	8ggJ)	.
.	4aa'	.
.	4gg'	.
=3	=3	=3
1r	4ff#'	.
.	4ee'	.
.	4dd'	.
.	4ee'	.
=4	=4	=4
1r	4a'\	.
.	(8ff#L	p
.	8ggJ)	.
.	4aa'	.
.	4gg'	.
!!LO:LB:g=z
=5	=5	=5
1r	4ff#'	.
.	4ee'	.
.	4dd'	.
.	4ee'	.
=6	=6	=6
2r	2aMM	.
(8AAL	2a 2aa	<
8C#	.	.
8BB	.	.
8DJ	.	.
=7	=7	=7
8C#L	2a 2aa	.
8E	.	.
8D	.	.
8F#J	.	.
8EL	2a 2aa	.
8G	.	.
8F#	.	.
8AJ	.	.
=8	=8	=8
8GL	2a 2aa	.
8B	.	.
8A	.	.
8c#J	.	.
8BL	2a 2aa	.
8d	.	.
8c#	.	.
8eJ	.	.
!!LO:LB:g=z
=9	=9	=9
*	*^	*
2d)	(4aa	2a	f
.	4ff#)	.	.
(4f#	2ryy	(4aa	.
4d	.	8ggL	.
.	.	8ff#J	.
*	*v	*v	*
=10	=10	=10
2A)	2eeMM)	.
(8AAL	2a 2aa	p
8C#	.	.
8BB	.	.
8DJ	.	.
=11	=11	=11
8C#L	2a 2aa	.
8E	.	.
8D	.	.
8F#J	.	.
8EL	2a 2aa	.
8G	.	.
8F#	.	.
8AJ	.	.
=12	=12	=12
8GL	2a 2aa	.
8B	.	.
8A	.	.
8c#J	.	.
8BL	2a 2aa	.
8d	.	.
8c#	.	.
8eJ	.	.
!!LO:LB:g=z
=13	=13	=13
*	*^	*
2d)	(4aa	2a	f
.	4ff#)	.	.
(4f#	2ryy	(4aa	.
8eL	.	8ggL	.
8dJ	.	8ff#J	.
*	*v	*v	*
=14	=14	=14
2A)	2eeMM)	.
2A	(8aL	<
.	8cc#	.
.	8b	.
.	8ddJ	.
=15	=15	=15
2A	8cc#L	.
.	8ee	.
.	8dd	.
.	8ff#J	.
2A	8eeL	.
.	8gg	.
.	8ff#	.
.	8aaJ	[
=16	=16	=16
(<2A 2B	2b)	p
2G 2B)	(8bL	<
.	8dd	.
.	8cc#	.
.	8eeJ	.
!!LO:LB:g=z
=17	=17	=17
2G 2B	8ddL	.
.	8ff#	.
.	8ee	.
.	8ggJ	.
2G 2B	8ff#L	.
.	8aa	.
.	8gg	.
.	8bbJ	[
=18	=18	=18
(<2G 2A	2a)	p
2F# 2A)	(8aaL	<
.	8ff#	.
.	8gg	.
.	8eeJ	.
=19	=19	=19
2F# 2A	8ff#L	.
.	8dd	.
.	8ee	.
.	8cc#J	.
2F# 2A	8ddL	.
.	8b	.
.	8cc#	.
.	8aJ	.
=20	=20	=20
2G 2B	8bL	.
.	8g	.
.	8a	.
.	8f#J	.
2G 2B	8gL	.
.	8e	.
.	8dd	.
.	8dJ)	.
!!LO:LB:g=z
=21	=21	=21
(2A	2d 2f#	f
.	[8eqq	.
2AA	(2c# 2eT]	.
.	16dqLL	.
.	16eqJJ	.
=22	=22	=22
2D)	2d)	.
(2d	(8aL	p
.	8f#	.
.	8b	.
.	8aJ)	.
=23	=23	=23
2d 2e)	(4a	.
.	4g)	.
(<2c# 2e	(8eeL	f
.	8g	.
.	8a	.
.	8eJ)	.
=24	=24	=24
2d)	(4e	>
.	4f#)	]
(2d	(8aL	p
.	8f#	.
.	8b	.
.	8aJ)	.
!!LO:LB:g=z
=25	=25	=25
2d 2e)	(4a	.
.	4g)	.
(<2c# 2e	(8eeL	f
.	8g	.
.	8a	.
.	8eJ)	.
=26	=26	=26
2d)	(4e	>
.	4f#)	]
*clefG2	*	*
(>2e	(8bL	p
.	8g	.
.	8ccn	.
.	8bJ)	.
=27	=27	=27
2e 2f#)	(4b/	>
.	4a)	]
(2d# 2f#	(8ff#L>	f
.	8a	.
.	8b	.
.	8f#J)	.
=28	=28	=28
2e)	(4f#	>
.	4g)	]
(>2e	(8bL	p
.	8g	.
.	8ccn	.
.	8bJ)	.
!!LO:LB:g=z
=29	=29	=29
2e 2f#)	(4b/	>
.	4a)	]
(2d# 2f#	(8ff#L	f
.	8a	.
.	8b	.
.	8f#J)	.
=30	=30	=30
2e)	4f#	>
.	4g	]
(2e	(8ggL	p
.	8ff#	<
.	8gg	.
.	8eeJ	.
=31	=31	=31
2cn)	4ff#	.
.	4gg)	.
(2c	(8ggL	.
.	8ff#	.
.	8gg	.
.	8eeJ	.
=32	=32	=32
2B)	4ff#	.
.	4gg)	.
(2B	(4bb	mf
.	4gg	.
!!LO:LB:g=z
=33	=33	=33
2c#X)	4ee	.
.	4cc#)	.
.	[8gq	.
(2c#	(2gT]	.
.	16aqLL	.
.	16gqJJ	.
=34	=34	=34
2d)	2f#))	.
(2f#	(8aaL	p
.	8gg#	<
.	8aa	.
.	8ff#J	.
=35	=35	=35
2d)	4gg#	.
.	4aa)	.
(2d	(8aaL	.
.	8gg#	.
.	8aa	.
.	8ff#J	.
=36	=36	=36
2c#)	4gg#	.
.	4aa)	.
(2c#	(4ccc#	f
.	4aa	.
!!LO:LB:g=z
=37	=37	=37
2d#)	4ff#	.
.	4dd#)	.
.	[8aqq	.
(2d#	(2aT]	.
.	16bqLL	.
.	16aqJJ	.
=38	=38	=38
2e)	2g#)	.
*clefF4	*	*
(<8EEL	2e 2ee	p
8GG#	.	<
8FF#	.	.
8AAJ	.	.
=39	=39	=39
8GG#L	2e 2ee	.
8BB	.	.
8AA	.	.
8C#J	.	.
8BBL	2e 2ee	.
8D	.	.
8C#	.	.
8EJ	.	.
=40	=40	=40
8DL	2e 2ee	.
8F#	.	.
8E	.	.
8G#J	.	.
8F#L	2e 2ee	.
8A	.	.
8G#	.	.
8BJ	.	.
!!LO:LB:g=z
=41	=41	=41
*	*^	*
2A)	(4ee	2e	f
.	4cc#)	.	.
(4c#	2ryy	(4ee	.
8BL	.	8ddL	.
8AJ	.	8cc#J	.
*	*v	*v	*
=42	=42	=42
2E)	2b)MM	.
(<8EEL	2e 2ee	p
8GG#	.	<
8FF#	.	.
8AAJ	.	.
=43	=43	=43
8GG#L	2e 2ee	.
8BB	.	.
8AA	.	.
8C#J	.	.
8BBL	2e 2ee	.
8D	.	.
8C#	.	.
8EJ	.	.
=44	=44	=44
8DL	2e 2ee	.
8F#	.	.
8E	.	.
8G#J	.	.
8F#L	2e 2ee	.
8A	.	.
8G#	.	.
8BJ	.	.
!!LO:LB:g=z
=45	=45	=45
*	*^	*
2A)	(4ee	2e	f
.	4cc#)	.	.
(4c#	2ryy	(4ee	.
8BL	.	8ddL	.
8AJ	.	8cc#J	.
*	*v	*v	*
=46	=46	=46
2E)	2b)MM	.
2e	(8g#L<	p
.	8b	.
.	8a	.
.	8cc#J	.
=47	=47	=47
(2e	4b')	.
.	(2gg#	f
2d	.	.
.	8aaL	.
.	8bbJ	.
=48	=48	=48
2c#)	4aa')	.
.	4a'	.
2e	(8g#L<	p
.	8b	.
.	8a	.
.	8cc#J	.
!!LO:LB:g=z
=49	=49	=49
(2e	4b')	.
.	(2gg#	f
2d	.	.
.	8aaL	.
.	8bbJ	.
=50	=50	=50
2c#)	4aa')	.
.	(8ccc#L	.
.	8bbJ	.
(2C#	8aaL	.
.	8gg#	.
.	8ff#	.
.	8eeJ	.
=51	=51	=51
2D	8ddL	.
.	8cc#	.
.	8b	.
.	8aJ	.
2E	8g#L	.
.	8f#	.
.	8e	.
.	8dJ	.
=52	=52	=52
2A)	2c#)m	.
(<2F#	(8cc#L	p
.	8dd	.
.	8ee	.
.	8aJ)	.
!!LO:LB:g=z
=53	=53	=53
2D	(4a\	.
.	4b)	.
2BB	(8bL	.
.	8cc#	.
.	8dd	.
.	8g#J)	.
=54	=54	=54
2C#)	(4g#	.
.	4a)	.
(<2C#	(8cc#L	<
.	8dd	.
.	8ee	.
.	8aJ	.
=55	=55	=55
2D/	8ff#L	.
.	8gg#	.
.	8aa	.
.	8aJ	.
2BB	8gg#L	.
.	8aa	.
.	8bb	.
.	8gg#J)	.
=56	=56	=56
2AA)	(4gg#	f
.	4aa)	.
(<2F#	(8cc#L	p
.	8dd	.
.	8ee	.
.	8aJ)	.
!!LO:LB:g=z
=57	=57	=57
2D	(4a\	.
.	4b)	.
2BB	(8bL	.
.	8cc#	.
.	8dd	.
.	8g#J)	.
=58	=58	=58
2C#)	(4g#	.
.	4a)	.
(<2C#	(8cc#L	<
.	8dd	.
.	8ee	.
.	8aJ	.
=59	=59	=59
2D	8ff#L	.
.	8gg#	.
.	8aa	.
.	8aJ	.
2BB	8gg#L	.
.	8aa	.
.	8bb	.
.	8gg#J	.
=60	=60	=60
2C#)	8aaL	f
.	8gg#	.
.	8aa	.
.	8eeJ)	.
(<2C#	(8aaL	.
.	8gg#	.
.	8ff#	.
.	8eeJ	.
!!LO:LB:g=z
=61	=61	=61
2D	8eeL	.
.	8dd	.
.	8ee	.
.	8ff#J	.
2E	8eeL	.
.	8dd	.
.	8cc#	.
.	8bJ	.
=62	=62	=62
2A)	4b	.
.	4cc#)	.
(<2C#	(8aaL	p
.	8gg#	.
.	8ff#	.
.	8eeJ	.
=63	=63	=63
2D	8eeL	.
.	8dd	.
.	8ee	.
.	8ff#J	.
2E	8eeL	.
.	8dd	.
.	8cc#	.
.	8bJ	.
=64	=64	=64
2A)	8cc#L)	<
.	(8a	.
.	8cc#	.
.	8eeJ	.
(<2C#	8aaL	.
.	8gg#	.
.	8ff#	.
.	8eeJ	.
!!LO:LB:g=z
=65	=65	=65
2D	8ff#L	.
.	8gg#	.
.	8aa	.
.	8ddJ	.
2E	8cc#L	.
.	8aa	.
.	8b	.
.	8gg#J	.
=66	=66	=66
*>A1	*>A1	*>A1
1AA)	1aa)	f
=67:|!	=67:|!	=67:|!
*>A2	*>A2	*>A2
2AA)	2aa)	f
=!|:	=!|:	=!|:
*>B	*>B	*>B
*clefG2	*	*
(>2a	(8aaL	p
.	8ee	.
.	8ff#	.
.	8cc#J)	.
=68	=68	=68
2a 2b)	(4cc#	.
.	4dd)	.
(2g#	(8bbL	mf
.	8dd	.
.	8ee	.
.	8bJ)	.
!!LO:LB:g=z
=69	=69	=69
2a)	(4b	>
.	4cc#)	]
(>2a	(8aaL	p
.	8ee	.
.	8ff#	.
.	8cc#J)	.
=70	=70	=70
2a 2b)	(4cc#	.
.	4dd)	.
(>2gn	(8bb\L	mf
.	8dd	.
.	8ee	.
.	8bJ)	.
=71	=71	=71
2g 2a)	(4b	>
.	4cc#)	]
(>2f#	(8aaL	mf
.	8cc#	.
.	8dd	.
.	8aJ)	.
=72	=72	=72
2f# 2g)	(4a\	>
.	4b)	]
2e	(8ggL	mf
.	8b	.
.	8cc#	.
.	8bJ	.
!!LO:LB:g=z
=73	=73	=73
(8eL	4a#'\)	.
8f#	.	.
8d	(4b	p
8eJ	.	.
8c#L	4cc#	<
8d	.	.
8B	4dd	.
8c#J	.	.
*clefF4	*	*
=74	=74	=74
2A#	8eeL	.
.	8dd	.
.	8ee	.
.	8cc#J	.
2B	8ddL	.
.	8cc#	.
.	8dd	.
.	8bJ	.
=75	=75	=75
2F#)	2cc#)mm	mf
(8F#L	2f# 2ff#	<
8A#	.	.
8G#	.	.
8BJ	.	.
=76	=76	=76
8A#L	2f# 2ff#	.
8c#	.	.
8B	.	.
8dJ	.	.
4c#')	(4ee	.
(4A#	8ddL	.
.	8cc#J	.
!!LO:LB:g=z
=77	=77	=77
.	(16eeqq	.
4B	4ddT)	f >
4F#)	4cc#)	]
(8F#L	2f# 2ff#	p
8A#	.	<
8G#	.	.
8BJ	.	.
=78	=78	=78
8A#L	2f# 2ff#	.
8c#	.	.
8B	.	.
8dJ	.	.
4c#')	(4ee	.
(4F#	8ddL	.
.	8cc#J	.
=79	=79	=79
2B)	4dd	f >
.	8cc#L	.
.	8bJ)	]
*clefG2	*	*
2g	(8ddL	p
.	8cc#	.
.	8dd	.
.	8bJ	.
=80	=80	=80
*^	*	*
2a	(4g	4cc#	>
.	4f#)	4dd)	]
2g	2ryy	(8ddL	.
.	.	8cc#	.
.	.	8dd	.
.	.	8bJ	.
!!LO:LB:g=z
=81	=81	=81	=81
2a	(4g	4cc#	>
.	4f#)	4dd)	]
(2g#	2ryy	(8ddL	mf
.	.	8cc#	.
.	.	8dd	.
.	.	8bJ)	.
*v	*v	*	*
=82	=82	=82
2a)	4b	>
.	4cc#	.
(2g#	8ddL	.
.	8cc#	.
.	8dd	.
.	8bJ	]
=83	=83	=83
2a)	4b	>
.	4cc#	]
*clefF4	*	*
(<8AAL	2a 2aa	p
8C#	.	.
8BB	.	.
8DJ	.	.
=84	=84	=84
8C#L	2a 2aa	.
8E	.	.
8D	.	.
8F#J	.	.
8EL	2a 2aa	.
8Gn	.	.
8F#	.	.
8AJ	.	.
!!LO:LB:g=z
=85	=85	=85
*	*^	*
2G)	(4aa	2b	mf >
.	4gg)	.	]]
(<8GGL	2ryy	2b 2gg	p
8BB	.	.	<
8AA	.	.	.
8C#J	.	.	.
*	*v	*v	*
=86	=86	=86
8BBL	2b 2gg	.
8D	.	.
8C#	.	.
8EJ	.	.
8DL	2b 2gg	.
8F#	.	.
8E	.	.
8GJ	.	.
=87	=87	=87
*	*^	*
2F#)	(4gg	2a	mf
.	8ff#L	.	.
.	8eeJ	.	.
(2F#	2ryy	8ddL	.
.	.	8cc#	.
.	.	8b	.
.	.	8aJ	.
*	*v	*v	*
=88	=88	=88
2G)	8bL	.
.	8dd	.
.	8cc#	.
.	8eeJ	.
(2G	8ddL	.
.	8ff#	.
.	8gg	.
.	8eeJ	.
!!LO:LB:g=z
=89	=89	=89
2A	2dd)	.
2AA	(2eeT	f
.	16ddqLL	.
.	16eeqJJ	.
=90	=90	=90
2D)	2dd)	.
(8DL	2ff# 2ddd	p
8F#	.	<
8E	.	.
8GJ	.	.
=91	=91	=91
8F#L	2ff# 2ddd	.
8A	.	.
8G	.	.
8BJ	.	.
8AL	2ff# 2ddd	.
8c#	.	.
8B	.	.
8dJ	.	.
=92	=92	=92
*	*^	*
2c#)	(4ddd	2ee	f >
.	4ccc#)	.	]]
(8C#L	2ryy	2ee 2ccc#	p
8E	.	.	<
8D	.	.	.
8F#J	.	.	.
*	*v	*v	*
!!LO:LB:g=z
=93	=93	=93
8EL	2ee 2ccc#	.
8G	.	.
8F#	.	.
8AJ	.	.
8GL	2ee 2ccc#	.
8B	.	.
8A	.	.
8c#J	.	.
=94	=94	=94
*	*^	*
2B)	(4ccc#	2dd	f >
.	4bb)	.	]]
(8BBL	2ryy	2dd 2bb	p
8D	.	.	.
8C#	.	.	.
8EJ	.	.	.
*	*v	*v	*
=95	=95	=95
8DL	2dd 2bb	.
8F#	.	.
8E	.	.
8GJ	.	.
8F#L	2dd 2bb	.
8A	.	.
8G	.	.
8BJ	.	.
=96	=96	=96
*	*^	*
2A)	(4bb	2cc#	f >
.	4aa)	.	]]
(8AAL	2ryy	2a 2aa	p
8C#	.	.	<
8BB	.	.	.
8DJ	.	.	.
*	*v	*v	*
!!LO:LB:g=z
=97	=97	=97
8C#L	2a 2aa	.
8E	.	.
8D	.	.
8F#J	.	.
8EL	2a 2aa	.
8G	.	.
8F#	.	.
8AJ	.	.
=98	=98	=98
8GL	2a 2aa	.
8B	.	.
8A	.	.
8c#J	.	.
8BL	2a 2aa	.
8d	.	.
8c#	.	.
8eJ	.	.
=99	=99	=99
*	*^	*
2d)	(4aa	2a	f
.	4ff#)	.	.
(4f#	2ryy	(4aa	.
8eL	.	8ggL	.
8dJ	.	8ff#J	.
*	*v	*v	*
=100	=100	=100
2A)	2eeMM)	.
(8AAL	2a 2aa	p
8C#	.	.
8BB	.	.
8DJ	.	.
!!LO:LB:g=z
=101	=101	=101
8C#L	2a 2aa	.
8E	.	.
8D	.	.
8F#J	.	.
8EL	2a 2aa	.
8G	.	.
8F#	.	.
8AJ	.	.
=102	=102	=102
8GL	2a 2aa	.
8B	.	.
8A	.	.
8c#J	.	.
8BL	2a 2aa	.
8d	.	.
8c#	.	.
8eJ	.	.
=103	=103	=103
*	*^	*
2d)	(4aa	2a	f
.	4ff#)	.	.
(4f#	2ryy	(4aa	.
8eL	.	8ggL	.
8dJ	.	8ff#J	.
*	*v	*v	*
=104	=104	=104
2A)	2eeMM)	.
(2A	(8cc#L	p
.	8dd	.
.	8ee	.
.	8aJ)	.
!!LO:LB:g=z
=105	=105	=105
2A 2B)	(4a\	.
.	4b)	.
2G (2B	(8bL	.
.	8cc#	.
.	8dd	.
.	8gJ)	.
=106	=106	=106
2G 2A)	(4g	.
.	4a)	.
2F# (2A	(8ff#L	mf
.	8gg	.
.	8aa	.
.	8ddJ)	.
=107	=107	=107
2G 2B)	(4dd	.
.	4ee)	.
2E (2G	(8eeL	.
.	8ff#	.
.	8gg	.
.	8cc#J)	.
=108	=108	=108
2F# 2A)	(4cc#	.
.	4dd)	.
2F# (2A	(8ff#L	p
.	8gg	<
.	8aa	.
.	8ddJ	.
!!LO:LB:g=z
=109	=109	=109
2G 2B)	8ggL	.
.	8aa	.
.	8bb	.
.	8ddJ	.
2E (2G	8aaL	.
.	8bb	.
.	8ccc#	.
.	8eeJ	.
=110	=110	=110
2F# 2A)	8dddL	f
.	8aa	.
.	8ff#	.
.	8ddJ)	.
2F# (2A	(8dddL	.
.	8ccc#	.
.	8bb	.
.	8aaJ	.
=111	=111	=111
2G 2B)	8aaL	.
.	8gg	.
.	8aa	.
.	8bbJ	.
(<2C# 2A	8aaL	.
.	8gg	.
.	8ff#	.
.	8eeJ	.
=112	=112	=112
2D) 2A	8ff#L)	.
.	(8dd	p
.	8ff#	.
.	8aaJ	.
2F# (2A	8dddL	.
.	8ccc#	.
.	8bb	.
.	8aaJ	.
!!LO:LB:g=z
=113	=113	=113
2G 2B)	8aaL	.
.	8gg	.
.	8aa	.
.	8bbJ	.
(<2C# 2A	8aaL	.
.	8gg	.
.	8ff#	.
.	8eeJ	.
=114	=114	=114
2D) 2A	8ff#L	<
.	8ee	.
.	8dd	.
.	8cc#J	.
(<2D	8ddL	.
.	8cc#	.
.	8b	.
.	8aJ	.
=115	=115	=115
2C#	8aL	.
.	8g	.
.	8a	.
.	8bJ	.
2AA	8aL	.
.	8g	.
.	8f#	.
.	8eJ	.
=116	=116	=116
2D)	8f#L)	f
.	(8d	p
.	8f#	<
.	8aJ	.
(<2D	8ddL	.
.	8cc#	.
.	8b	.
.	8aJ	.
!!LO:LB:g=z
=117	=117	=117
2C#	8aL	.
.	8g	.
.	8a	.
.	8bJ	.
2AA	8aL	.
.	8g	.
.	8f#	.
.	8eJ	.
=118	=118	=118
2D)	8f#L	.
.	8e	.
.	8d	.
.	8c#J	.
2FF# 2F#	8dL	.
.	8c#	.
.	8B	.
.	8AJ)	.
=119	=119	=119
2GG 2G	(8bL	f
.	8cc#	.
.	8dd	.
.	8eeJ	.
2AA 2A	8f#L	.
.	8dd	.
.	8e	.
.	8cc#J	.
=120	=120	=120
2DD 2D	2dd)	.
==:|!	==:|!	==:|!
*-	*-	*-
!!!RDF**kern: > = above
!!!RDF**kern: < = below
!!!RDF**dynam: < = cres.
!!!verovio: beamFrenchStyle 1
!!!URL-vhv: https://verovio.humdrum.org/?file=scarlatti/sonatas/L306K345.krn
!!!URL-pdf: https://github.com/craigsapp/scarlatti-keyboard-sonatas/blob/master/reference-edition/L306K345.pdf
!!!PTL: Domenico Scarlatti: Opere complete per clavicembalo
!!!PED: Longo, Alessandro
!!!PPR: Ricordi
!!!PPP: Milan
!!!PDT: 1906-1913
!!!YEC: 2021 Craig Stuart Sapp
!!!YEM: Licence: (CC BY-NC-SA 4.0) https://creativecommons.org/licenses/by-nc-sa/4.0
!!!ENC: Craig Stuart Sapp
!!!END: 2004/11/07/
!!!EED: Craig Stuart Sapp
!!!EEV: 2020/12/18
